!!!!SEGMENT: pl-gd--ee-2628--005-019_stabile-annibale--il-primo-libro-de-madrigali-a-cinque-voci-quanta-nel-freddo-aquario.krn
!!!cenid: 15xx:1064
!!!COM: Stabile, Annibale
!!!COM-rismID: pe30009662
!!!CDT: ~1535-1595/04
!!!CNT: Italian
!!!GTL: Il primo libro de madrigali a cinque voci
!!!OTL: Quanta nel freddo Aquario
!!!OMV: 019
!!!PDT: 1586
!!!AGN:
!!!YEC: Copyright 2022 Narodowy Instytut Fryderyka Chopina (https://polishscores.org)
!!!YEM: License CC-BY-4.0 (https://creativecommons.org/licenses/by/4.0)
!!!SMS-siglum: PL-GD
!!!SMS-shelfmark: Ee 2628
!!!SMS-shelfwork: 005-019 G
!!!SMS-variant:
!!!SMS-altvar:
!!!NIFC-rismSourceID: 1001203361
!!!NIFC-rismChildID: 990060531
!!!NIFC-islandoraID: pl-gd:66139
!!!URL-pdf-islandora: https://repozytorium.nifc.pl/islandora/object/pl-gd%3A66139/datastream/PDF/view
!!!URL-scan: https://polish.musicsources.pl/pl/lokalizacje/galeria/klocki-introligatorskie/673 @EN{Scan on Polish Music Sources Website} @PL{Skany w portalu Dziedzictwo Muzyki Polskiej w otwartym dostępie}
!!!IIIF:
!!!ONB-nifc: UWAGA: Canto: s. 78-89, Tenore: s. 233-245, Basso: s. 390-401, Quinto: s. 712-723. Dla głosu Alto proszę skorzystać z https://pbc.gda.pl/dlibra/doccontent?id=79410, str. 25-48. Uwaga: utwory podzielone wg spisu treści dostępnych na końcu ksiąg – proszę sprawdzać sąsiednie tytuły. Głos Quinto proszę umieszczać wg ambitusu (może się różnić w zależności od utworu).
!!!AIN: 1 alto 1 bass 1 soprn 2 tenor
!!!key: G:mix
**kern	**text	**kern	**text	**kern	**text	**kern	**text	**kern	**text
*part5	*	*part4	*	*part3	*	*part2	*	*part1	*
*staff5	*	*staff4	*	*staff3	*	*staff2	*	*staff1	*
*I"BASSO	*	*I"QVINTO	*	*I"TENORE	*	*I"ALTO	*	*I"CANTO	*
*I'B	*	*I'V 5	*	*I'T	*	*I'A	*	*I'S	*
*Ibass	*	*Itenor	*	*Itenor	*	*Ialto	*	*Isoprn	*
*ICvox	*	*ICvox	*	*ICvox	*	*ICvox	*	*ICvox	*
*clefF3	*	*clefC3	*	*clefC3	*	*clefC2	*	*clefG2	*
*k[]	*	*k[]	*	*k[]	*	*k[]	*	*k[]	*
*G:mix	*	*G:mix	*	*G:mix	*	*G:mix	*	*G:mix	*
*M2/1	*	*M2/1	*	*M2/1	*	*M2/1	*	*M2/1	*
*met(C)	*	*met(C)	*	*met(C)	*	*met(C)	*	*met(C)	*
=1-	=1-	=1-	=1-	=1-	=1-	=1-	=1-	=1-	=1-
00r	.	00r	.	00r	.	2g\	QVan-	0r	.
.	.	.	.	.	.	4g\	-ta	.	.
.	.	.	.	.	.	4e/	nel	.	.
.	.	.	.	.	.	4f\	fred-	.	.
.	.	.	.	.	.	4d/	-d'_A-	.	.
.	.	.	.	.	.	2e/	-quario	.	.
=2-	=2-	=2-	=2-	=2-	=2-	=2-	=2-	=2-	=2-
.	.	.	.	.	.	4c/	han	2g/	QVan-
.	.	.	.	.	.	2e/	l'al-	.	.
.	.	.	.	.	.	.	.	4g/	-ta
.	.	.	.	.	.	4g\	-pi	4b/	nel
.	.	.	.	.	.	2f\	ne-	4cc\	fred-
.	.	.	.	.	.	.	.	4dd\	-d'_A-
.	.	.	.	.	.	4.e/	-ue	2ee\	-quario
.	.	.	.	.	.	8f\	.	.	.
=3-	=3-	=3-	=3-	=3-	=3-	=3-	=3-	=3-	=3-
1r	.	2c/	QVan-	00r	.	2g\	.	4cc\	han
.	.	.	.	.	.	.	.	2ee\	l'al-
.	.	4c/	-ta	.	.	4r	.	.	.
!	!	!	!	!	!	!LO:SIC:v:t=custos e	!	!	!
.	.	4B/	nel	.	.	4g\	Quan-	4dd\	-pi
!	!	!	!	!	!	!LO:LB:g=original	!	!	!
2r	.	4c/	fred-	.	.	4e/	-ta	2cc\	ne-
.	.	4A/	-d'_A-	.	.	4f#X\	nel	.	.
2G\	QVan-	2d\	-quario	.	.	2.g\	fred-	4.b/	-ue
.	.	.	.	.	.	.	.	8cc\	.
=4-	=4-	=4-	=4-	=4-	=4-	=4-	=4-	=4-	=4-
4G\	-ta	4B/	han	.	.	.	.	4dd\	.
4E/	nel	2c/	l'al-	.	.	4g\	-d'_A-	4gg\	han
4F/	fred-	.	.	.	.	4a\	-qua-	4ff\	l'al-
!	!	!	!	!	!	!	!	!LO:SIC:v:t=custos ee	!
4G\	-d'_A-	4B/	-pi	.	.	8g\	.	4ee\	-pi
.	.	.	.	.	.	8fny\	.	.	.
!	!	!	!	!	!	!	!	!LO:LB:g=original	!
2A\	-quario	1.c	ne-	.	.	4e/	.	8ee\	ne-
.	.	.	.	.	.	.	.	8dd\	.
.	.	.	.	.	.	4e/	-rio_han	8cc\	.
.	.	.	.	.	.	.	.	8b\	.
4F/	han	.	.	.	.	4f\	l'al-	4.a/	.
2A\	l'al-	.	.	.	.	8e/	.	.	.
.	.	.	.	.	.	8d/	.	8b\	.
=5-	=5-	=5-	=5-	=5-	=5-	=5-	=5-	=5-	=5-
.	.	.	.	2r	.	2e/	.	8cc\	.
.	.	.	.	.	.	.	.	8dd\	.
4c\	-pi	.	.	.	.	.	.	8ee\	.
.	.	.	.	.	.	.	.	8cc\	.
2B\	ne-	2G/	-ue	2g\	QVan-	2d/	-pi	2dd\	.
2c\	-ue	1r	.	4g\	-ta	4e/	ne-	4.cc\	.
.	.	.	.	4e\	nel	2g\	.	.	.
.	.	.	.	.	.	.	.	8b\	.
2r	.	.	.	4c/	fred-	.	.	2a/	-ue
.	.	.	.	4d\	-d'_A-	4f#X\	.	.	.
=6-	=6-	=6-	=6-	=6-	=6-	=6-	=6-	=6-	=6-
!LO:SIC:v:t=custos G	!	!	!	!	!	!	!	!	!
1r	.	4r	.	2e\	-quario	4g\	-ue	1r	.
!	!	!LO:SIC:v:t=custos A	!	!	!	!	!	!	!
.	.	4c/	han	.	.	4g\	han	.	.
!	!	!LO:LB:g=original	!	!	!	!	!	!	!
.	.	4A/	l'al-	4f\	han	4a\	l'al-	.	.
!	!	!	!	!	!	!LO:SIC:v:t=custos cc	!	!	!
.	.	4G/	-pi	2e\	l'al-	4b\	-pi	.	.
!LO:LB:g=original	!	!	!	!	!	!LO:LB:g=original	!	!	!
4r	.	4A/	ne-	.	.	4cc\	ne-	4r	.
4G\	han	4B/	-ue	4d\	-pi	4g\	-ue	4b/	han
4A\	l'al-	2r	.	2f\	ne-	2r	.	4cc\	l'al-
4B\	-pi	.	.	.	.	.	.	4dd\	-pi
=7-	=7-	=7-	=7-	=7-	=7-	=7-	=7-	=7-	=7-
2c\	ne-	2r	.	4.e\	-ue	2r	.	2ee\	ne-
!	!	!	!	!LO:SIC:v:t=custos g	!	!	!	!	!
.	.	.	.	8f\	.	.	.	.	.
!	!	!	!	!LO:LB:g=original	!	!	!	!	!
2C/	-ue	4r	.	2g\	.	2cc\	E	4ee\	-ue
.	.	4c/	E	.	.	.	.	4ee\	E
2r	.	4.g\	quan-	2r	.	4.b\	quan-	4.dd\	quan-
.	.	8g\	-te	.	.	8b\	-te	8dd\	-te
4r	.	4g\	ſon	4r	.	4b\	ſon	4dd\	ſon
!	!	!	!	!	!	!	!	!LO:SIC:v:t=custos dd	!
4C/	E	4e\	del	4c/	E	4g\	del	4cc\	del
!	!	!	!	!	!	!	!	!LO:LB:g=original	!
=8-	=8-	=8-	=8-	=8-	=8-	=8-	=8-	=8-	=8-
4.G\	quan-	2.d\	Vaſ-	4.B/	quan-	2g\	Vaſ-	2.dd\	Vaſ-
8G\	-te	.	.	8B/	-te	.	.	.	.
4G\	ſon	.	.	4B/	ſon	2g\	-to	.	.
4E/	del	4c#X/	-to_O-	4G/	del	.	.	4ee\	-to_O-
2.D/	Vaſ-	4d\	-cea-	2A/	Vaſ-	2r	.	4ff\	-cea-
.	.	4d\	-no	.	.	.	.	4ff\	-no
.	.	2e\	l'on-	4A/	-to_O-	4r	.	2ee\	l'on-
4C#X/	-to O-	.	.	2A/	-cea-	4e/	O-	.	.
=9-	=9-	=9-	=9-	=9-	=9-	=9-	=9-	=9-	=9-
4D/	-cea-	2d\	-de	.	.	4f#X\	-cea-	4a/	-de
4D/	-no	.	.	4F#X/	-no	4a\	-no	4dd\	O-
2E/	l'on-	2r	.	2G/	l'on-	2g\	l'on-	4b\	-cea-
.	.	.	.	.	.	.	.	4cc#X\	-no
1D	-de	4d\	Quan-	1A	-de	2f#X\	-de	2dd\	l'on-
!	!	!LO:SIC:v:t=custos d	!	!	!	!	!	!	!
.	.	4d\	-te ha(n)	.	.	.	.	.	.
!	!	!LO:LB:g=original	!	!	!	!	!	!	!
.	.	4d\	fier'	.	.	2r	.	2dd\	-de
.	.	8e\	et	.	.	.	.	.	.
.	.	8f#X\	au-	.	.	.	.	.	.
=10-	=10-	=10-	=10-	=10-	=10-	=10-	=10-	=10-	=10-
!LO:SIC:v:t=custos D	!	!	!	!	!	!	!	!	!
00r	.	2.g\	-gei	4G/	Quan-	1r	.	4b/	Qua(n)-
.	.	.	.	4G/	-te	.	.	4b/	-te_ha
.	.	.	.	4G/	ha	.	.	4b/	fier'
.	.	4fny\	l'ae-	8A/	fier'	.	.	8ccny\	et
!	!	!	!	!LO:SIC:v:t=custos c	!	!	!	!	!
.	.	.	.	8B/	et au-	.	.	8dd\	au-
!	!	!	!	!LO:LB:g=original	!	!	!	!	!
.	.	2e\	-re_e	2.c/	-gei	4g\	Quan-	2ee\	-gei
!	!	!	!	!	!	!LO:SIC:v:t=custos g	!	!	!
.	.	.	.	.	.	4g\	-te_ha	.	.
!	!	!	!	!	!	!LO:LB:g=original	!	!	!
.	.	2e\	la	.	.	4g\	fier'	2gg\	l'ae-
.	.	.	.	4B/	l'ae-	8a\	et	.	.
.	.	.	.	.	.	8b\	au-	.	.
=11-	=11-	=11-	=11-	=11-	=11-	=11-	=11-	=11-	=11-
.	.	1cny	ter-	2A/	-re_e	2cc\	-gei	4ff\	-re_e
.	.	.	.	.	.	.	.	4ee\	la
.	.	.	.	2A/	la	4a\	l'ae-	4ee\	ter-
.	.	.	.	.	.	2cc\	-re_e	8dd\	.
!	!	!	!	!	!	!	!	!LO:SIC:v:t=custos dd	!
.	.	.	.	.	.	.	.	8cc\	.
!	!	!	!	!	!	!	!	!LO:LB:g=original	!
.	.	1g	-ra	1G	ter-	.	.	0dd	.
.	.	.	.	.	.	4b\	la	.	.
.	.	.	.	.	.	2b\	ter-	.	.
!LO:LB:g=original	!	!	!	!	!	!	!	!	!
=12-	=12-	=12-	=12-	=12-	=12-	=12-	=12-	=12-	=12-
4D/	Quan-	4f#X\	Quan-	2d\	-ra	2a\	-ra	.	.
4D/	-te	4f#\	-t'_ha(n)	.	.	.	.	.	.
4D/	ha(n)	4f#\	fier'	2r	.	2r	.	.	.
8E/	fier'	8g\	et	.	.	.	.	.	.
8F/	et au-	8a\	au-	.	.	.	.	.	.
2.G\	-gei	1d	-gei	4g\	Quan-	1r	.	1b	-ra
.	.	.	.	4g\	-t'_ha	.	.	.	.
.	.	.	.	4g\	fier'	.	.	.	.
4A\	l'ae-	.	.	8f\	et	.	.	.	.
.	.	.	.	8e\	au-	.	.	.	.
=13-	=13-	=13-	=13-	=13-	=13-	=13-	=13-	=13-	=13-
4.B\	-re_e	2r	.	4.d\	-gei	0r	.	4dd\	Quan-
.	.	.	.	.	.	.	.	4dd\	-t'_ha
8c\	la	.	.	8e\	l'e-	.	.	.	.
4d\	ter-	4r	.	4f#X\	-re'_e	.	.	4dd\	fier'
4G\	-ra	4g\	l'ae-	4g\	la	.	.	8cc\	et
.	.	.	.	.	.	.	.	8b\	au-
1r	.	4f\	-re'_e	2d\	ter-	.	.	1a	-gei
!	!	!LO:SIC:v:t=custos f	!	!	!	!	!	!	!
.	.	4d\	la	.	.	.	.	.	.
!	!	!LO:LB:g=original	!	!	!	!	!	!	!
.	.	4.f\	ter-	2d\	-ra	.	.	.	.
.	.	8g\	.	.	.	.	.	.	.
=14-	=14-	=14-	=14-	=14-	=14-	=14-	=14-	=14-	=14-
*	*	*	*	*	*	*	*	*	*ij
!	!	!	!	!LO:SIC:v:t=custos d	!	!	!	!	!
4d\	Quan-	2a\	.	0r	.	2r	.	4ff\	Quan-
4d\	-t'_ha(n)	.	.	.	.	.	.	4ff\	-t'_ha
4d\	fier'	2d\	-ra	.	.	4a\	Quan-	4ff\	fier'
8c\	et	.	.	.	.	4a\	-t'_ha	8ee\	et
!LO:SIC:v:t=custos A	!	!	!	!	!	!	!	!	!
8B\	au-	.	.	.	.	.	.	8dd\	au-
!LO:LB:g=original	!	!	!	!	!	!	!	!	!
2.A\	-gei	1r	.	.	.	4a\	fier'	2.cc\	-gei
*	*	*	*	*	*	*	*	*	*Xij
.	.	.	.	.	.	8g\	et	.	.
.	.	.	.	.	.	8fny\	au-	.	.
.	.	.	.	.	.	2e/	-gei	.	.
4c\	l'ae-	.	.	.	.	.	.	4ee\	l'e-
!	!	!	!	!LO:LB:g=original	!	!	!	!	!
=15-	=15-	=15-	=15-	=15-	=15-	=15-	=15-	=15-	=15-
4B\	-re'_e	00r	.	2r	.	2g\	l'e-	4dd\	-re'_e
4c\	la	.	.	.	.	.	.	4ee\	la
4A\	ter-	.	.	4r	.	4f\	-re'_e 	4cc\	ter-
!	!	!	!	!	!	!LO:SIC:v:t=custos e	!	!	!
4G\	-ra	.	.	4d\	l'ae-	4g\	la	8b/	.
.	.	.	.	.	.	.	.	8a/	.
!	!	!	!	!	!	!LO:LB:g=original	!	!	!
1r	.	.	.	4G/	-re_e	2e/	ter-	4b/	.
.	.	.	.	4g\	la	.	.	8a/	.
.	.	.	.	.	.	.	.	8g/	.
.	.	.	.	2f#X\	ter-	1d/	-ra	2a/	.
=16-	=16-	=16-	=16-	=16-	=16-	=16-	=16-	=16-	=16-
!	!	!	!	!	!	!	!	!LO:SIC:v:t=custos b	!
2r	.	.	.	2f#\	-ra	.	.	2a/	-ra
!	!	!	!	!	!	!	!	!LO:LB:g=original	!
2G\	Quan-	.	.	2g\	Quan-	2d/	Quan-	2b/	Quan-
4G\	-t'_il	.	.	4g\	-t'_il	4d/	-t'_il	4b/	-t'_il
4E/	Mar	.	.	4g\	Mar	4e/	Mar	4b/	Mar
2A\	peſ-	.	.	4e\	peſ-	2c/	peſ-	2cc\	peſ-
.	.	.	.	4fny\	-ci_e	.	.	.	.
=17-	=17-	=17-	=17-	=17-	=17-	=17-	=17-	=17-	=17-
4G\	-ci_e	0r	.	2.g\	quan-	4d/	-ci_e	4b/	-ci_e
2c\	quan-	.	.	.	.	2e/	quan-	2cc\	quan-
4A\	-te_a-	.	.	4a\	-te_a-	4f\	-te_a-	4cc\	-te_a-
4B\	-re-	.	.	4d\	-re-	4g\	-re-	4b/	-re-
4d\	-ne	.	.	4d\	-ne	4f\	-ne	4a/	-ne
2A\	l'Ar-	.	.	2c#X/	l'Ar-	2e/	l'Ar-	2a/	l'Ar-
=18-	=18-	=18-	=18-	=18-	=18-	=18-	=18-	=18-	=18-
!LO:SIC:v:t=custos D	!	!	!	!	!	!	!	!	!
1D	-no	4r	.	2d\	-no	2f#X\	-no	4a/	-no
.	.	4d\	Tan-	.	.	.	.	4dd\	Tan-
!	!	!	!	!LO:SIC:v:t=custos A	!	!	!	!	!
.	.	4d\	-te	2r	.	2f#\	Tan-	4dd\	-te
.	.	4d\	vir-	.	.	.	.	4a/	vir-
!LO:LB:g=original	!	!	!	!LO:LB:g=original	!	!	!	!	!
2r	.	4G/	-tu-	2r	.	2g\	-te	4b-X/	-tu-
.	.	4G/	-ti_o	.	.	.	.	4b-/	-ti_o
2D/	Tan-	2d\	Dea	4r	.	2f#\	vir-	1a/	Dea
.	.	.	.	4A/	Tan-	.	.	.	.
=19-	=19-	=19-	=19-	=19-	=19-	=19-	=19-	=19-	=19-
4D/	-te	1r	.	4A/	-te	2f#\	-tu-	.	.
4D/	vir-	.	.	4d\	vir-	.	.	.	.
4A\	-tu-	.	.	4c#X/	-tu-	2e/	-tio	2r	.
4A\	-ti_o	.	.	4c#/	-ti_o	.	.	.	.
!	!	!	!	!	!	!LO:SIC:v:t=custos g	!	!	!
1D	Dea	4r	.	1d	Dea	1f#X	Dea	4r	.
*	*	*	*ij	*	*	*	*	*	*ij
.	.	4a\	Tan-	.	.	.	.	4dd\	Tan-
.	.	4a\	-te	.	.	.	.	4dd\	-te
.	.	4d\	vir-	.	.	.	.	4dd\	vir-
!	!	!	!	!	!	!LO:LB:g=original	!	!	!
=20-	=20-	=20-	=20-	=20-	=20-	=20-	=20-	=20-	=20-
2r	.	4e\	-tu-	2r	.	4r	.	4g/	-tu-
.	.	4e\	-ti_o	.	.	4g\	ſop-	4g/	-ti_o
4r	.	4d\	Dea	4r	.	4a\	-ra_il	2dd\	Dea
*	*	*	*Xij	*	*	*	*	*	*Xij
!	!	!LO:SIC:v:t=custos g	!	!	!	!	!	!	!
4d\	ſop-	4f#X\	ſo-	4d\	ſop-	4b\	tuo	.	.
!	!	!LO:LB:g=original	!	!	!	!	!	!LO:SIC:v:t=custos a	!
4c\	-ra_il	4g\	-pra_il	4e\	-ra_il	1cc	man-	1r	.
4A\	tuo	4a\	tuo	4fny\	tuo	.	.	.	.
8c\	man-	4g\	man-	2e\	man-	.	.	.	.
8B\	.	.	.	.	.	.	.	.	.
8A\	.	2c/	-to	.	.	.	.	.	.
8G\	.	.	.	.	.	.	.	.	.
!	!	!	!	!	!	!	!	!LO:LB:g=original	!
=21-	=21-	=21-	=21-	=21-	=21-	=21-	=21-	=21-	=21-
4.F\	.	.	.	2f\	-to	1a	-to	4r	.
.	.	4c/	ſo-	.	.	.	.	4a/	e
8E/	.	.	.	.	.	.	.	.	.
8D/	.	4fny\	-pra_il	4r	.	.	.	2.dd\	gra-
8E/	.	.	.	.	.	.	.	.	.
8F\	.	4f\	tuo	4a\	ſop-	.	.	.	.
!LO:SIC:v:t=custos A	!	!	!	!	!	!	!	!	!
8G\	.	.	.	.	.	.	.	.	.
!LO:LB:g=original	!	!	!	!	!	!	!	!	!
2A\	.	4.e\	man-	4a\	-ra_il	1r	.	.	.
.	.	.	.	4e\	tuo	.	.	4cc\	-ve
.	.	16d\	.	.	.	.	.	.	.
.	.	16c\	.	.	.	.	.	.	.
2G\	-to	2d\	.	2g\	man-	.	.	4bny/	ver-
.	.	.	.	.	.	.	.	4b/	-s'il
=22-	=22-	=22-	=22-	=22-	=22-	=22-	=22-	=22-	=22-
!	!	!	!	!LO:SIC:v:t=custos d	!	!	!	!	!
0r	.	2d\	-to	1f#X	-to	0r	.	2a/	ciel
.	.	2d\	e	.	.	.	.	4r	.
.	.	.	.	.	.	.	.	4dd\	con
!	!	!	!	!LO:LB:g=original	!	!	!	!	!
.	.	2.g\	gra-	2r	.	.	.	8dd\	lar-
.	.	.	.	.	.	.	.	8cc\	.
.	.	.	.	.	.	.	.	8b\	.
.	.	.	.	.	.	.	.	8a/	.
.	.	.	.	4r	.	.	.	4g/	.
.	.	4f\	-tie	4d\	e	.	.	4a/	-ga
=23-	=23-	=23-	=23-	=23-	=23-	=23-	=23-	=23-	=23-
1r	.	4e\	ver-	2.g\	gra-	4r	.	4b/	piog-
.	.	4e\	-s'il	.	.	4g\	e	8a/	.
.	.	.	.	.	.	.	.	8g/	.
.	.	2d\	ciel	.	.	2.dd\	gra-	2a/	.
.	.	.	.	4fny\	-tie	.	.	.	.
2r	.	2r	.	4e\	ver-	.	.	1g	-gia
.	.	.	.	4e\	-s'il	4cc\	-tie	.	.
2G\	e	4r	.	2d\	ciel	4b\	ver-	.	.
!	!	!LO:SIC:v:t=custos g	!	!	!	!	!	!	!
.	.	4g\	con	.	.	4b\	-s'il	.	.
!	!	!LO:LB:g=original	!	!	!	!	!	!	!
=24-	=24-	=24-	=24-	=24-	=24-	=24-	=24-	=24-	=24-
2.c\	gra-	8g\	lar-	1r	.	2cc\	ciel	1r	.
.	.	8f\	.	.	.	.	.	.	.
.	.	8e\	.	.	.	.	.	.	.
.	.	8d\	.	.	.	.	.	.	.
.	.	4c\	.	.	.	4r	.	.	.
*	*	*	*	*	*	*	*ij	*	*
4B\	-tie	4d\	-ga	.	.	4g\	e	.	.
4A\	ver-	4e\	piog-	2r	.	2.cc\	gra-	2r	.
4A\	-s'il	8d\	.	.	.	.	.	.	.
.	.	8c\	.	.	.	.	.	.	.
2G\	ciel	2d\	.	2g\	con	.	.	2dd\	e
.	.	.	.	.	.	4b\	-tie	.	.
=25-	=25-	=25-	=25-	=25-	=25-	=25-	=25-	=25-	=25-
1r	.	2c/	-gia	8g\	lar-	2cc\	ver-	2.gg\	gra-
.	.	.	.	8f\	.	.	.	.	.
.	.	.	.	8e\	.	.	.	.	.
.	.	.	.	8d\	.	.	.	.	.
!	!	!	!	!	!	!LO:SIC:v:t=custos g	!	!	!
.	.	2r	.	4cny\	.	2a\	-s'il	.	.
!	!	!	!	!	!	!	!	!LO:SIC:v:t=custos ee	!
.	.	.	.	4d\	-ga	.	.	4ff\	-tie
!	!	!	!	!	!	!LO:LB:g=original	!	!LO:LB:g=original	!
2r	.	0r	.	4e\	piog-	4g\	ciel	4ee\	ver-
*	*	*	*	*	*	*	*Xij	*	*
.	.	.	.	8d\	.	4cc\	con	4ee\	-s'il
.	.	.	.	8c\	.	.	.	.	.
*	*ij	*	*	*	*	*	*	*	*
!	!	!	!	!LO:SIC:v:t=custos e	!	!	!	!	!
2G\	e	.	.	2g\	.	4cc\	lar-	4dd\	ciel
.	.	.	.	.	.	4b\	-ga	4gg\	con
!	!	!	!	!LO:LB:g=original	!	!	!	!	!
=26-	=26-	=26-	=26-	=26-	=26-	=26-	=26-	=26-	=26-
2.c\	gra-	.	.	4e\	-gia	2cc\	piog-	8gg\	lar-
.	.	.	.	.	.	.	.	8ff\	.
.	.	.	.	4c/	con	.	.	8ee\	.
.	.	.	.	.	.	.	.	8dd\	.
.	.	.	.	4e\	lar-	2g\	-gia	4cc\	.
4B\	-tie	.	.	4d\	-ga	.	.	4dd\	-ga
4A\	ver-	2r	.	2c/	piog-	2r	.	4ee\	piog-
4A\	-s'il	.	.	.	.	.	.	8dd\	.
.	.	.	.	.	.	.	.	8cc\	.
2G\	ciel	2G/	e	4B/	-gia	2g\	con	2dd\	.
*	*Xij	*	*	*	*	*	*	*	*
.	.	.	.	4B/	e	.	.	.	.
=27-	=27-	=27-	=27-	=27-	=27-	=27-	=27-	=27-	=27-
1r	.	2.c/	gra-	4.e\	gra-	8g\	lar-	4cc\	-gia
.	.	.	.	.	.	8fny\	.	.	.
.	.	.	.	.	.	8e/	.	4cc\	e
.	.	.	.	8f\	-tie	8d/	.	.	.
.	.	.	.	4g\	ver-	4c/	.	4ee\	gra-
.	.	4B/	-tie	4g\	-s'il	4d/	-ga	4dd\	-tie
2r	.	4A/	ver-	2a\	ciel	4e/	piog-	4cc\	ver-
.	.	4A/	-s'il	.	.	8d/	.	4cc\	-s'il
.	.	.	.	.	.	8c/	.	.	.
4r	.	4G/	ciel	2r	.	2d/	.	4b/	ciel
!LO:SIC:v:t=custos G	!	!	!	!	!	!	!	!	!
4D/	e	4d\	con	.	.	.	.	4a/	con
!LO:LB:g=original	!	!	!	!	!	!	!	!	!
=28-	=28-	=28-	=28-	=28-	=28-	=28-	=28-	=28-	=28-
2.G\	gra-	8d\	lar-	0r	.	2d/	-gia	8b/	lar-
.	.	8c\	.	.	.	.	.	8a/	.
.	.	8B/	.	.	.	.	.	8b\	.
!	!	!LO:SIC:v:t=custos G	!	!	!	!	!	!LO:SIC:v:t=custos b	!
.	.	8A/	.	.	.	.	.	8cc\	.
*	*	*	*	*	*	*	*ij	*	*
!	!	!LO:LB:g=original	!	!	!	!LO:SIC:v:t=custos e	!	!LO:LB:g=original	!
.	.	4G/	.	.	.	2d/	con	4b/	.
4F/	-tie	4A/	-ga	.	.	.	.	4.a/	-ga
!	!	!	!	!	!	!LO:LB:g=original	!	!	!
4E/	ver-	4B/	piog-	.	.	4e/	lar-	.	.
.	.	.	.	.	.	.	.	8g/	.
4E/	-s'il	8A/	.	.	.	4c/	-ga	2g/	.
.	.	8G/	.	.	.	.	.	.	.
2D/	ciel	2A/	.	.	.	2d/	piog-	.	.
.	.	.	.	.	.	.	.	4f#X/	piog-
=29-	=29-	=29-	=29-	=29-	=29-	=29-	=29-	=29-	=29-
4r	.	2G/	-gia	2d\	e	1B	-gia	2g/	-gia
*	*	*	*	*	*	*	*Xij	*	*
4G\	con	.	.	.	.	.	.	.	.
8G\	lar-	4r	.	2.g\	gra-	.	.	2r	.
8F\	.	.	.	.	.	.	.	.	.
8E/	.	4G/	e	.	.	.	.	.	.
8D/	.	.	.	.	.	.	.	.	.
4Cny/	.	4c/	gra-	.	.	2r	.	4r	.
4D/	-ga	4A/	-tie	4f\	-tie	.	.	2dd\	e
4.E/	piog-	1G/	ver-	4e\	ver-	2g\	e	.	.
.	.	.	.	4e\	-s'il	.	.	2cc\	gra-
8F/	.	.	.	.	.	.	.	.	.
=30-	=30-	=30-	=30-	=30-	=30-	=30-	=30-	=30-	=30-
!	!	!	!	!LO:SIC:v:t=custos d	!	!	!	!	!
2G\	.	.	.	2d\	ciel	2g\	gra-	.	.
.	.	.	.	.	.	.	.	4b/	-tie
!	!	!	!	!LO:LB:g=original	!	!	!	!	!
2D/	-gia	2A/	-s'il	2d\	con	2f#X\	-tie	4a/	ver-
.	.	.	.	.	.	.	.	4a/	-s'il
2r	.	1G	ciel	4d\	lar-	2g\	ver-	2b/	ciel
.	.	.	.	4c/	.	.	.	.	.
2G\	con	.	.	4B/	.	2d/	-s'il	2g/	con
.	.	.	.	4A/	.	.	.	.	.
=31-	=31-	=31-	=31-	=31-	=31-	=31-	=31-	=31-	=31-
!LO:SIC:v:t=custos F	!	!	!	!	!	!	!	!	!
2G\	lar-	2r	.	2G/	.	4d/	ciel	8g/	l'ar-
.	.	.	.	.	.	.	.	8a/	.
.	.	.	.	.	.	4d/	con	8b\	.
.	.	.	.	.	.	.	.	8cc\	.
!LO:LB:g=original	!	!	!	!	!	!	!	!	!
2F#X/	-ga	2d\	con	2A/	-ga	2.a\	lar-	1dd	.
*lig	*	*	*	*	*	*	*	*	*
1G	piog-	2d\	lar-	2B/	piog-	.	.	.	.
.	.	.	.	.	.	4g\	-ga	.	.
.	.	2d\	-ga	4A/	.	2.g\	piog-	2dd\	-ga
.	.	.	.	4G/	.	.	.	.	.
=32-	=32-	=32-	=32-	=32-	=32-	=32-	=32-	=32-	=32-
1D	.	1d	piog-	1A	.	.	.	1dd	piog-
.	.	.	.	.	.	4f#X\	.	.	.
.	.	.	.	.	.	2f#\	.	.	.
*Xlig	*	*	*	*	*	*	*	*	*
1Gl	-gia.	1dl	-gia.	1Gl	-gia.	1gl	-gia.	1bl	-gia.
==	==	==	==	==	==	==	==	==	==
*-	*-	*-	*-	*-	*-	*-	*-	*-	*-
!!!system-decoration: [(*)]
!!!RDF**kern: l = terminal long
!!!ENC: Filip Voros
!!!END: 2022-07-08
!!!ENC: Andrzej Kubiczek
!!!END: 2022-08-11
